X: 1
T:Prince Charles Welcome To Lochaber
M:C|
L:1/8
Q:80
C:P/M Evan MacRae
S:March 2/4
K:HP
|: e|
{g}A3/2B/2{Gdc}d3/2e/2|
{g}fa{fg}fd|
{g}e3/2f/2{g}ed|  !
{g}f3/2e/2{Gdc}d{e}B:|2 |
{g}A3/2B/2{Gdc}d3/2e/2|
{g}fa{fg}fd|  !
{g}ed{g}f3/2e/2|
{Gdc}d2{gdG}d:| |:
{gf}g|  !
{ag}a3/2f/2{gf}ge|
{g}fa{fg}fd|
{ag}a3/2f/2{g}ed|  !
{g}f3/2e/2{Gdc}d{e}B|1 |
{ag}a3/2f/2{gf}ge|
{g}fa{fg}fd|  !
{g}ed{g}f3/2e/2|
{Gdc}d2{gdG}d:| |:
f|  !
{g}A3/2B/2{Gdc}d{e}A|
{gBd}B{e}A{Gdc}d{e}A|
{g}A3/2B/2{Gdc}df|  !
{gef}e3/2d/2{gBd}B{e}A:|2 |
{g}A3/2B/2{Gdc}d{e}A|
{gBd}B{e}A{Gdc}d{e}A|  !
{g}ed{g}f3/2e/2|
{Gdc}d2{gdG}d:| |:
{ag}a|  !
f2{GdG}fa|
e2{GdG}ef|
{Gdc}d3/2e/2{g}fa|  !
g3/4f/4{g}e3/4d/4{gBd}B{e}A|1 |
f2{GdG}fa|
e2{GdG}e3/2f/2|  !
{g}ed{g}f3/2e/2|
{Gdc}d2{gdG}d:|
